X: 24
T: Brosna Slide
M: 12/8
L: 1/8
R: slide
K:G
"G"D2G G2A BAB d2B|"D"A2D FED A2D FED|
"G"G3 G2A BAB d2B|"D"A2D FED "G"G3 |1GFE :|2GBd||
|:"G"g2f efg "D"f2e d2B|"D7"c2B A2B "C"c2d e2f|
"G"g2f efg "D"f2e d2B|"D7"c2A FED "G"G3 |1GBd:|2 GFE||


